assets/icons/standard/shift_template.svg

<svg data-name="Layer 1" xmlns="http://www.w3.org/2000/svg" width="100" height="100" viewBox="0 0 100 100"><path d="M72,26H67V24a4,4,0,0,0-8,0v2H41V24a4,4,0,0,0-8,0v2H28a6,6,0,0,0-6,6v2a2,2,0,0,0,2,2H76a2,2,0,0,0,2-2V32A6,6,0,0,0,72,26Zm4,16H24a2,2,0,0,0-2,2V74a6,6,0,0,0,6,6H72a6,6,0,0,0,6-6V44A2,2,0,0,0,76,42ZM45.3,74.1a1.09,1.09,0,0,1-1.1,1H37A1.09,1.09,0,0,1,36,74V59.9a1.09,1.09,0,0,1,1.1-1h7.3a1.09,1.09,0,0,1,1,1.1l-.1,14.1Zm19.9.2a1.09,1.09,0,0,1-1.1,1H50.7a1.09,1.09,0,0,1-1-1.1V59.9a1.09,1.09,0,0,1,1.1-1H64.3a1.09,1.09,0,0,1,1,1.1l-.1,14.3Zm.2-20.6a1.09,1.09,0,0,1-1.1,1H37a1.09,1.09,0,0,1-1-1.1V47.3a1.09,1.09,0,0,1,1.1-1H64.3a1.09,1.09,0,0,1,1,1.1C65.4,47.4,65.4,53.7,65.4,53.7Z" fill="#fff"/></svg>

<?xml version="1.0"?><svg xmlns="http://www.w3.org/2000/svg" width="100" height="100" viewBox="0 0 100 100"><title></title><path d="m72 26h-5v-2a4 4 0 0 0-8 0v2h-18v-2a4 4 0 0 0-8 0v2h-5a6 6 0 0 0-6 6v2a2 2 0 0 0 2 2h52a2 2 0 0 0 2-2v-2a6 6 0 0 0-6-6z m4 16h-52a2 2 0 0 0-2 2v30a6 6 0 0 0 6 6h44a6 6 0 0 0 6-6v-30a2 2 0 0 0-2-2z m-30.7 32.1a1.1 1.1 0 0 1-1.1 1h-7.2a1.1 1.1 0 0 1-1-1.1v-14.1a1.1 1.1 0 0 1 1.1-1h7.3a1.1 1.1 0 0 1 1 1.1l-0.1 14.1z m19.9 0.2a1.1 1.1 0 0 1-1.1 1h-13.4a1.1 1.1 0 0 1-1-1.1v-14.3a1.1 1.1 0 0 1 1.1-1h13.5a1.1 1.1 0 0 1 1 1.1l-0.1 14.3z m0.2-20.6a1.1 1.1 0 0 1-1.1 1h-27.3a1.1 1.1 0 0 1-1-1.1v-6.3a1.1 1.1 0 0 1 1.1-1h27.2a1.1 1.1 0 0 1 1 1.1c0.1 0 0.1 6.3 0.1 6.3z" fill="#fff"></path></svg>
